X:797
T:Alftaålen
R:Polska
C:Emil Olsson
O:Alfta, Hälsingland
Q:110
M:3/4
L:1/8
K:C
za ed cB/A/ | E(^G/B/) A2 A2 | A,2 DF E>G | GF/E/ F2 E2 :|
|: D>(f a)>(e f)c | de/f/ (g/f/)e/d/ cA | D(3(f/e/f/ a>)(e f>)c | de/f/ g/f/e/d/ cA |
d>(d A/_B/)A/G/ F>D | EC (D/E/)F/G/ A>(^c | d>)(e f)e/d/ c(e/c/) | d2 d4 :|
(:musicend:)

(:music:)
